src/site/assets/img/signin/idme-icon-white.svg

<?xml version="1.0" encoding="UTF-8"?>
<svg width="30px" height="12px" viewBox="0 0 30 12" version="1.1" xmlns="http://www.w3.org/2000/svg" xmlns:xlink="http://www.w3.org/1999/xlink">
    <!-- Generator: Sketch 46.2 (44496) - http://www.bohemiancoding.com/sketch -->
    <title>idme-icon-white</title>
    <desc>Created with Sketch.</desc>
    <defs></defs>
    <g id="Round-3-mockups" stroke="none" stroke-width="1" fill="none" fill-rule="evenodd">
        <g id="idme-icon-white" fill-rule="nonzero">
            <g id="idme-white">
                <path d="M1.48514716,0.0384006227 L0.969776283,0.0384006227 C0.326271589,0.0384006227 0,0.245878613 0,0.655103157 L0,10.7760553 C0,11.1852799 0.326271589,11.3927578 0.969776283,11.3927578 L1.48514716,11.3927578 C2.12847463,11.3927578 2.45492344,11.1852799 2.45492344,10.7760553 L2.45492344,0.655103157 C2.45492344,0.245878613 2.12847463,0.0384006227 1.48514716,0.0384006227" id="Fill-1" fill="#FFFFFF"></path>
                <path d="M7.6733194,9.10801633 L6.14794211,9.10801633 L6.14794211,2.31206136 L7.6733194,2.31206136 C9.58185756,2.31206136 9.98256374,4.1598764 9.98256374,5.71003886 C9.98256374,7.26020129 9.58185756,9.10801633 7.6733194,9.10801633 L7.6733194,9.10801633 Z M10.5743187,10.1532392 C10.5743187,8.94600771 11.306436,7.92409265 12.3176829,7.57218245 C12.433411,7.00954649 12.492427,6.38806777 12.492427,5.71003886 C12.492427,2.05147208 10.7809633,0.0366811917 7.6733194,0.0366811917 L4.36062598,0.0366811917 C3.89771378,0.0366811917 3.68238519,0.268995406 3.68238519,0.767821403 L3.68238519,10.6522563 C3.68238519,11.1510823 3.89771378,11.3833965 4.36062598,11.3833965 L7.6733194,11.3833965 C8.85806985,11.3833965 9.83918853,11.0897559 10.600548,10.5246363 C10.5851294,10.4029388 10.5743187,10.2795219 10.5743187,10.1532392 L10.5743187,10.1532392 Z" id="Fill-2" fill="#FFFFFF"></path>
                <path d="M14.2405764,10.1532392 C14.2405764,10.8377638 13.7257371,11.3927578 13.0907393,11.3927578 C12.4555641,11.3927578 11.9409022,10.8377638 11.9409022,10.1532392 C11.9409022,9.46871471 12.4555641,8.91372065 13.0907393,8.91372065 C13.7257371,8.91372065 14.2405764,9.46871471 14.2405764,10.1532392" id="Fill-3" fill="#2EC777"></path>
                <path d="M27.2634383,5.99603751 C27.2659195,6.02584099 27.2682235,6.05545341 27.2685779,6.08563897 C27.2685779,6.12900682 27.2669829,6.17332993 27.2623749,6.22051875 C27.2471336,6.37908848 27.2200183,6.52676852 27.1819147,6.65973783 C26.9283055,7.54619997 26.2144424,7.7032413 25.5969897,7.72578496 C25.6808172,7.34082349 25.8041661,6.96369499 25.956048,6.6308896 C26.256622,5.9708192 26.6339345,5.56083046 26.9407114,5.56063939 C26.9687129,5.56063939 26.9961827,5.5650335 27.0241842,5.57363065 C27.0360585,5.57726058 27.0465147,5.58337412 27.0653005,5.5933086 L27.0780607,5.59961317 C27.0832003,5.60190575 27.0883399,5.60419832 27.0931249,5.60763718 C27.1062395,5.61661644 27.1177593,5.62846141 27.1305195,5.64107056 L27.1409757,5.65157821 C27.1448746,5.65539918 27.1489508,5.65922011 27.1526725,5.66361422 C27.1611794,5.6739308 27.1682684,5.68596681 27.1753575,5.69762071 L27.1845732,5.71271351 C27.1909533,5.72264798 27.1971561,5.73277356 27.2028273,5.74480957 C27.2061946,5.75187832 27.2090303,5.75971129 27.2170054,5.78034445 C27.2251576,5.8019329 27.2334873,5.82371234 27.2396901,5.84740225 L27.2453613,5.87491317 C27.2519187,5.9033793 27.25759,5.93241857 27.2611345,5.96279516 L27.2634383,5.99603751 L27.2634383,5.99603751 Z M29.4427766,8.41374834 C29.409281,8.39827347 29.3733044,8.38948525 29.3362643,8.38814793 C29.1792426,8.38260757 29.0721987,8.44909222 28.9775604,8.61377549 C28.9215573,8.71254721 28.8664402,8.81303843 28.8118549,8.91352958 C28.6032609,9.29658058 28.387755,9.69224074 28.0745981,9.97575577 C27.6492575,10.3607172 27.0335772,10.5408754 26.5056235,10.4363722 C26.1915804,10.3742816 25.9673904,10.1293582 25.8344716,9.93487153 C25.5906097,9.57761197 25.472046,9.09655346 25.4911864,8.54213251 C26.2683188,8.47163585 28.6107043,8.09832832 28.796968,6.18421965 C28.8329446,5.81320469 28.7349392,5.4767694 28.5134077,5.21159495 C28.2325058,4.87535069 27.784126,4.69003427 27.2510325,4.69003427 C25.6887925,4.69003427 24.1469332,6.45149564 23.9514538,8.45959984 C23.898109,9.01039086 23.961733,9.51934239 24.1410848,9.97250795 C24.007457,10.1058594 23.8812726,10.2019564 23.7559744,10.2657664 C23.6251823,10.3330153 23.5117582,10.3465797 23.4286395,10.3055044 C23.3256717,10.2539215 23.2840237,10.124391 23.2675419,10.0250461 C23.2060447,9.65727896 23.2854415,9.23468107 23.3793709,8.79813667 C23.4348425,8.54213251 23.5041375,8.27523866 23.5652802,8.03986766 C23.754025,7.31369469 23.9495043,6.56268551 23.8842855,5.8040344 C23.824915,5.10938434 23.3726363,4.67799822 22.7039657,4.67799822 C21.7664444,4.67799822 21.149169,5.39920395 20.7493489,6.01743488 C20.7408422,5.55662739 20.6389377,5.22210257 20.4393821,4.99857657 C20.2495739,4.78574923 19.9706215,4.67799822 19.6104998,4.67799822 C18.6908783,4.67799822 18.0812237,5.37073782 17.6824669,5.97712378 C17.6877837,5.92133781 17.6931004,5.86440555 17.6987716,5.8076643 C17.7239376,5.54764817 17.73528,5.17510481 17.5429907,4.94527421 C17.428326,4.80810182 17.2560631,4.73875145 17.0308099,4.73875145 C16.8319632,4.73875145 16.7823401,4.73989774 16.5687838,4.77791626 C16.5666571,4.7781073 16.3600125,4.8218573 16.2815017,4.89961375 C16.1437977,5.03583089 16.1875724,5.22363096 16.2127383,5.33099986 C16.2159284,5.34456426 16.218764,5.35698238 16.220359,5.36749 C16.2354232,5.471229 16.240031,5.58891449 16.2347143,5.72666002 C16.2060038,6.45608079 16.0803511,7.18492844 15.9610786,7.80182202 C15.8967458,8.13424531 15.8240835,8.47240006 15.7524845,8.80616067 C15.5933363,9.54666224 15.4288713,10.3121911 15.3445121,11.082114 C15.3354736,11.1636914 15.3570951,11.2412569 15.4053003,11.3002907 C15.4536828,11.3595155 15.5219145,11.3921847 15.5974125,11.3923757 L15.6470355,11.3927578 C16.1523045,11.4000177 16.6488896,11.377474 16.7658582,11.0670212 C16.8950553,10.7242813 16.9664771,10.3074149 17.0297465,9.9386925 L17.0575709,9.77534655 C17.2075034,8.92747609 17.3384728,8.31994384 17.6023611,7.53894014 C17.7382929,7.13640227 17.9867626,6.77379338 18.187736,6.50250543 C18.4310662,6.17428518 18.6933595,5.85294265 18.9895028,5.84491864 C19.1121427,5.83804092 19.1918938,5.87739678 19.2521505,5.96355938 C19.5397869,6.37717801 19.1816149,7.71222056 19.0288468,8.28230742 C18.9957056,8.4055333 18.967704,8.50965438 18.9499814,8.58607354 L18.8447098,9.02643888 C18.6896378,9.66855079 18.5294261,10.3324422 18.4471936,11.0039754 C18.4388641,11.0725616 18.4312434,11.1417209 18.424686,11.2114534 L18.4177742,11.3050669 L18.4824614,11.3587513 C18.6128992,11.4678397 19.5443949,11.3151924 19.5520155,11.3127088 C19.895478,11.1875724 19.970267,10.8391011 19.9949013,10.7246634 C20.0588795,10.4283482 20.1154145,10.1257284 20.1698226,9.8334251 L20.1737215,9.81164565 C20.2763349,9.26085463 20.3823156,8.6909588 20.5411093,8.14112306 C20.8507218,7.07125497 21.2636565,6.34126102 21.7683939,5.97139235 C21.9842541,5.81282262 22.2057856,5.79524621 22.3064495,5.92917074 C22.4808392,6.1603387 22.3702505,6.7862115 22.3229315,7.05348749 C22.2577127,7.42412038 22.1742395,7.80163095 22.0934249,8.16634133 L22.0893486,8.18506403 C22.037599,8.41756931 21.9862036,8.64988352 21.9383528,8.88296195 C21.7907242,9.60531396 21.6695022,10.5007553 22.0468147,11.0175398 C22.2387496,11.2809948 22.5357789,11.4143463 22.9297506,11.4143463 C23.3472931,11.4143463 23.7402015,11.2641826 24.1660735,10.9416938 C24.2833967,10.8520924 24.401783,10.7479713 24.5403733,10.6237902 C25.0197673,11.2112624 25.5643804,11.4628724 26.3500197,11.4628724 C28.1272339,11.4628724 28.9626735,10.1899204 29.4365738,9.2323885 C29.4962986,9.11107308 29.5631126,8.97103498 29.6029881,8.85220324 C29.6621814,8.675675 29.5916458,8.48309872 29.4427766,8.41374834 L29.4427766,8.41374834 Z" id="Fill-5" fill="#FFFFFF"></path>
            </g>
        </g>
    </g>
</svg>

<svg xmlns="http://www.w3.org/2000/svg" viewBox="0 0 30 12"><g fill-rule="nonzero" fill="none" width="30px" height="12px"><path d="M1.48515.0384H.96978C.32628.0384 0 .24588 0 .6551v10.12096c0 .40922.32627.6167.96978.6167h.51537c.64332 0 .96977-.20748.96977-.6167V.6551c0-.40922-.32645-.6167-.96977-.6167M7.67332 9.10802H6.14794V2.31206h1.52538c1.90854 0 2.30924 1.84782 2.30924 3.39798s-.4007 3.39798-2.30924 3.39798zm2.901 1.04522c0-1.20723.73212-2.22915 1.74336-2.58106.11573-.56263.17475-1.18411.17475-1.86214 0-3.65857-1.71147-5.67336-4.81911-5.67336h-3.3127c-.4629 0-.67823.23232-.67823.73114v9.88444c0 .49882.21532.73114.67824.73114h3.31269c1.18475 0 2.16587-.29364 2.92723-.85876-.01542-.1217-.02623-.24512-.02623-.3714z" fill="#FFF"/><path d="M14.24058 10.15324c0 .68452-.51484 1.23952-1.14984 1.23952-.63518 0-1.14984-.555-1.14984-1.23952 0-.68453.51466-1.23952 1.14984-1.23952.635 0 1.14984.555 1.14984 1.23952" fill="#2EC777"/><path d="M27.26344 5.99604c.00248.0298.00478.05941.00514.0896 0 .04337-.0016.08769-.0062.13488-.01525.15857-.04236.30625-.08047.43922-.2536.88646-.96747 1.0435-1.58492 1.06604.08383-.38496.20718-.76209.35906-1.09489.30057-.66007.67788-1.07006.98466-1.07025.028 0 .05547.0044.08347.013.01188.00362.02233.00973.04112.01967l.01276.0063c.00514.0023.01028.00459.01506.00803.01312.00898.02464.02082.0374.03343l.01046.0105c.0039.00383.00797.00765.0117.01204.0085.01032.01559.02236.02268.03401l.00921.0151c.00638.00993.01259.02005.01826.03209.00336.00707.0062.0149.01418.03553.00815.0216.01648.04337.02268.06706l.00567.02751c.00656.02847.01223.0575.01577.08789l.0023.03324zm2.17934 2.4177a.2772.2772 0 00-.10652-.0256c-.15702-.00553-.26406.06095-.3587.22564-.056.09877-.11112.19926-.1657.29975-.2086.38305-.4241.77871-.73726 1.06223-.42534.38496-1.04102.56512-1.56898.46061-.31404-.06209-.53823-.30701-.67115-.5015-.24386-.35726-.36242-.83832-.34328-1.39274.77713-.0705 3.11951-.4438 3.30578-2.35791.03597-.37102-.06203-.70745-.28356-.97263-.2809-.33624-.72928-.52156-1.26238-.52156-1.56224 0-3.1041 1.76147-3.29958 3.76957-.05334.5508.01028 1.05974.18963 1.5129-.13362.13336-.2598.22946-.3851.29327-.1308.06725-.24422.08081-.32734.03973-.10297-.05158-.14462-.1811-.1611-.28045-.0615-.36777.0179-.79037.11183-1.22691.05547-.256.12477-.5229.18591-.75827.18874-.72618.38422-1.47718.319-2.23584-.05936-.69465-.51164-1.12603-1.18031-1.12603-.93753 0-1.5548.7212-1.95462 1.33943-.0085-.4608-.11041-.79533-.30997-1.01885-.1898-.21283-.46876-.32058-.82888-.32058-.91962 0-1.52928.69274-1.92803 1.29912.00531-.05578.01063-.11271.0163-.16946.02517-.26001.03651-.63256-.15578-.86239-.11466-.13717-.28693-.20652-.51218-.20652-.19885 0-.24847.00115-.46203.03917-.00212.00019-.20877.04394-.28728.1217-.1377.13621-.09393.32401-.06876.43138.00319.01356.00602.02598.00762.03649.01506.10374.01967.22142.01435.35917-.0287.72942-.15436 1.45827-.27363 2.07516-.06433.33243-.137.67058-.2086 1.00434-.15914.7405-.3236 1.50603-.40797 2.27595-.00904.08158.01259.15915.06079.21818.04838.05923.11661.0919.19211.09209l.04963.00038c.50526.00726 1.00185-.01529 1.11882-.32574.1292-.34274.20062-.7596.26389-1.12833l.02782-.16334c.14993-.84787.2809-1.4554.5448-2.23641.13592-.40254.3844-.76515.58537-1.03643.24333-.32822.50562-.64957.80176-.6576.12264-.00687.2024.03249.26265.11865.28764.41362-.07054 1.74866-.2233 2.31875-.03314.12322-.06115.22734-.07887.30376l-.10527.44037c-.15507.64211-.31528 1.306-.39752 1.97754a7.70047 7.70047 0 00-.0225.20747l-.00692.09362.0647.05368c.13043.10909 1.06192-.04356 1.06955-.04604.34346-.12514.41825-.4736.44288-.58805.06398-.29631.12051-.59893.17492-.89123l.0039-.02178c.10261-.5508.2086-1.1207.36739-1.67053.30961-1.06987.72255-1.79986 1.22728-2.16973.21586-.15857.4374-.17614.53806-.04222.17439.23117.0638.85704.01648 1.12432-.06522.37063-.1487.74814-.2295 1.11285l-.00408.01872c-.05175.2325-.10315.46482-.151.6979-.14763.72235-.26885 1.6178.10846 2.13458.19194.26345.48897.3968.88294.3968.41754 0 .81045-.15016 1.23632-.47265.11733-.0896.23571-.19372.3743-.3179.4794.58747 1.02401.83908 1.80965.83908 1.77721 0 2.61265-1.27295 3.08655-2.23048.05973-.12132.12654-.26136.16642-.38019.0592-.17652-.01134-.3691-.16021-.43845z" fill="#FFF"/></g></svg>
